svg/doctor.svg

<svg xmlns="http://www.w3.org/2000/svg" viewBox="0 0 24 24"><path d="M14.84 16.26C17.86 16.83 20 18.29 20 20v2H4v-2c0-1.71 2.14-3.17 5.16-3.74L12 21zM8 8h8v2a4 4 0 0 1-4 4 4 4 0 0 1-4-4zm0-1 .41-4.1a1 1 0 0 1 1-.9h5.19c.51 0 .94.39.99.9L16 7zm4-4h-1v1h-1v1h1v1h1V5h1V4h-1z"/></svg>

<?xml version="1.0" encoding="UTF-8"?><!DOCTYPE svg PUBLIC "-//W3C//DTD SVG 1.1//EN" "http://www.w3.org/Graphics/SVG/1.1/DTD/svg11.dtd"><svg xmlns="http://www.w3.org/2000/svg" xmlns:xlink="http://www.w3.org/1999/xlink" version="1.1" id="mdi-doctor" width="24" height="24" viewBox="0 0 24 24"><path d="M14.84,16.26C17.86,16.83 20,18.29 20,20V22H4V20C4,18.29 6.14,16.83 9.16,16.26L12,21L14.84,16.26M8,8H16V10A4,4 0 0,1 12,14A4,4 0 0,1 8,10V8M8,7L8.41,2.9C8.46,2.39 8.89,2 9.41,2H14.6C15.11,2 15.54,2.39 15.59,2.9L16,7H8M12,3H11V4H10V5H11V6H12V5H13V4H12V3Z" /></svg>
